X:340
T:York Reel, The
R:reel
O:Scottish
Z:id:hn-reel-340
M:C|
K:Amix
~e3d BAAB|~G3A BABd|~e3d BAAB|~A3B e2ed:|
|:egfe edde|~B3A ~B3d|1 egfe edde|~A3B ~e3d:|2 egfe dBBd|~A3B ~e3d||
|:~e3d ~e3d|BAAB GABd|~e3d ~e3d|BAAB ~e3d:|
|:egfe d2Bd|~e2Be d2Bd|egfe d2Be|~A3B ~e3d:|
